public/images/flags/IE.svg

<svg width="21" height="15" viewBox="0 0 21 15" fill="none" xmlns="http://www.w3.org/2000/svg">
<path d="M6 0H15V15H6V0Z" fill="#F6F9FC"/>
<path opacity="0.1" d="M6 15V14H15V15H6ZM6 0H15V1H6V0Z" fill="#8898AA"/>
<path d="M2 0H7V15H2C1.46957 15 0.960858 14.7893 0.585785 14.4142C0.210712 14.0391 0 13.5304 0 13V2C0 1.46957 0.210712 0.960858 0.585785 0.585785C0.960858 0.210712 1.46957 0 2 0Z" fill="#24B47E"/>
<path d="M19 15H14V0H19C19.5304 0 20.0391 0.210712 20.4142 0.585785C20.7893 0.960858 21 1.46957 21 2V13C21 13.5304 20.7893 14.0391 20.4142 14.4142C20.0391 14.7893 19.5304 15 19 15Z" fill="#F79A59"/>
</svg>

<svg width="21" height="15" fill="none" xmlns="http://www.w3.org/2000/svg"><path d="M6 0h9v15H6V0z" fill="#F6F9FC"/><path opacity=".1" d="M6 15v-1h9v1H6zM6 0h9v1H6V0z" fill="#8898AA"/><path d="M2 0h5v15H2a2 2 0 0 1-2-2V2a2 2 0 0 1 2-2z" fill="#24B47E"/><path d="M19 15h-5V0h5a2 2 0 0 1 2 2v11a2 2 0 0 1-2 2z" fill="#F79A59"/></svg>
